;Generated by Cura LulzBot Edition GCodeWriter Version: 3.6.31
;FLAVOR:Marlin
;TIME:3303
;Filament used: 5.26987m
;Layer height: 0.4
;Generated with Cura_SteamEngine 3.6.31-win10
M82 ;absolute extrusion mode
;This G-Code has been generated specifically for the LulzBot Sidekick with a Universal Tool Head
G90 			            ; absolute coordinate
M82     	            	; set extruder to absolute mode
G92 E0     					; set extruder position to 0
M117 Heating...         	; progress indicator message on LCD
M109 R140 ; soften filament before homing Z
G28 ; Home all axis
G1 E-15 F100 ; retract filament
M140 S60.0     	; start bed heating up
M104 S140     	        ; start extruder heating to probe temp
M190 S60.0     	; wait for bed to reach printing temp
G29     					; start auto leveling
G0 X0 Y0 F5000
M109 R210     	; wait for extruder to reach initial printing temp
M117 SideKick Printing...   ; progress indicator message on LCD
G1 Z2 E0 F75 ; prime tiny bit of filament into the nozzle
M221 S100 T0
G92 E0
G1 F600 E-1.75
;LAYER_COUNT:26
;LAYER:0
M107
G0 F1350 X7.35 Y7.911 Z0.425
;TYPE:SKIRT
G1 F600 E0
G1 F900 X7.753 Y7.599 E0.04503
G1 X8.2 Y7.354 E0.09006
G1 X8.679 Y7.182 E0.13502
G1 X8.972 Y7.117 E0.16154
G1 X10.31 Y6.882 E0.28156
G1 X13.563 Y6.26 E0.57416
G1 X17.134 Y5.447 E0.89772
G1 X17.638 Y5.373 E0.94272
G1 X18.147 Y5.379 E0.9877
G1 X18.696 Y5.477 E1.03696
G1 X158.153 Y42.845 E13.79224
G1 X158.633 Y43.015 E13.83723
G1 X159.081 Y43.258 E13.88226
G1 X159.486 Y43.568 E13.92732
G1 X159.837 Y43.937 E13.97231
G1 X160.125 Y44.357 E14.0173
G1 X160.345 Y44.817 E14.06235
G1 X160.49 Y45.305 E14.10733
G1 X160.557 Y45.81 E14.15233
G1 X160.545 Y46.319 E14.19731
G1 X160.452 Y46.824 E14.24268
G1 X151.738 Y79.384 E17.2205
G1 X150.452 Y84.783 E17.71083
G1 X149.933 Y87.47 E17.95261
G1 X149.498 Y90.125 E18.1903
G1 X148.839 Y95.57 E18.67486
G1 X148.49 Y101.025 E19.15778
G1 X148.451 Y106.508 E19.6422
G1 X148.72 Y111.965 E20.1249
G1 X149.3 Y117.42 E20.60955
G1 X150.189 Y122.844 E21.09514
G1 X150.725 Y125.428 E21.32829
G1 X152.529 Y132.359 E21.96102
G1 X152.6 Y132.706 E21.99231
G1 X152.793 Y134.022 E22.10982
G1 X152.827 Y134.531 E22.15489
G1 X152.813 Y134.792 E22.17798
G1 X152.698 Y136.039 E22.28862
G1 X152.612 Y136.542 E22.3337
G1 X152.494 Y136.911 E22.36793
G1 X152.006 Y138.176 E22.48772
G1 X151.786 Y138.635 E22.53269
G1 X151.646 Y138.856 E22.5558
G1 X150.953 Y139.857 E22.66336
G1 X150.631 Y140.252 E22.70838
G1 X150.359 Y140.506 E22.74126
G1 X149.314 Y141.375 E22.86133
G1 X148.898 Y141.669 E22.90634
G1 X148.648 Y141.803 E22.9314
G1 X147.499 Y142.357 E23.04409
G1 X146.836 Y142.593 E23.10627
G1 X146.029 Y142.784 E23.17953
G1 X145.489 Y142.864 E23.22776
G1 X144.621 Y142.92 E23.30461
G1 X143.901 Y142.887 E23.36828
G1 X142.627 Y142.684 E23.48226
G1 X142.131 Y142.564 E23.52734
G1 X141.887 Y142.473 E23.55035
G1 X140.715 Y141.984 E23.66254
G1 X140.261 Y141.752 E23.70759
G1 X139.872 Y141.47 E23.75003
G1 X138.537 Y140.345 E23.90427
G1 X138.106 Y139.906 E23.95862
G1 X120.6 Y118.308 E26.41483
G1 X120.311 Y117.889 E26.45979
G1 X120.092 Y117.429 E26.5048
G1 X119.949 Y116.952 E26.5488
G1 X118.661 Y111.021 E27.085
G1 X117.97 Y108.406 E27.32396
G1 X116.34 Y103.155 E27.80971
G1 X114.421 Y98.019 E28.2941
G1 X112.221 Y93.013 E28.77719
G1 X109.746 Y88.151 E29.25918
G1 X106.985 Y83.409 E29.74396
G1 X103.97 Y78.845 E30.22722
G1 X100.699 Y74.455 E30.71089
G1 X97.191 Y70.265 E31.19367
G1 X93.428 Y66.254 E31.67957
G1 X91.499 Y64.367 E31.91797
G1 X87.409 Y60.69 E32.40387
G1 X83.158 Y57.281 E32.88528
G1 X78.669 Y54.083 E33.37222
G1 X76.413 Y52.613 E33.61011
G1 X72.988 Y50.551 E33.9633
G1 X7.913 Y13.136 E40.59502
G1 X7.493 Y12.848 E40.64001
G1 X7.122 Y12.498 E40.68507
G1 X6.811 Y12.094 E40.73011
G1 X6.567 Y11.647 E40.77511
G1 X6.396 Y11.167 E40.82012
G1 X6.302 Y10.666 E40.86516
G1 X6.287 Y10.157 E40.91015
G1 X6.352 Y9.652 E40.95513
G1 X6.495 Y9.163 E41.00014
G1 X6.713 Y8.702 E41.04519
G1 X7 Y8.281 E41.09021
G1 X7.35 Y7.911 E41.1352
G1 F600 E39.3852
;MESH:
G0 F1350 X15.239 Y11.161
G0 X14.873 Y12.529
G0 X17.446 Y13.289
G0 X17.396 Y13.203
;TYPE:WALL-INNER
G1 F600 E41.1352
G1 F900 X18.318 Y9.764 E41.44976
G1 X18.382 Y9.523 E41.47179
G1 X18.623 Y9.587 E41.48603
G1 X156.165 Y46.443 E54.06618
G1 X156.406 Y46.507 E54.08821
G1 X156.342 Y46.748 E54.10246
G1 X136.632 Y120.299 E60.82976
G1 X145.397 Y130.341 E62.00735
G1 X146.332 Y130.68 E62.09522
G1 X146.976 Y131.046 E62.16066
G1 X147.548 Y131.517 E62.22613
G1 X148.026 Y132.071 E62.29077
G1 X148.408 Y132.708 E62.35639
G1 X148.674 Y133.393 E62.42131
G1 X148.82 Y134.115 E62.48639
G1 X148.841 Y134.859 E62.55215
G1 X148.737 Y135.582 E62.61668
G1 X148.507 Y136.295 E62.68287
G1 X148.167 Y136.94 E62.74728
G1 X147.72 Y137.523 E62.81219
G1 X147.176 Y138.026 E62.87764
G1 X146.552 Y138.43 E62.94332
G1 X145.873 Y138.719 E63.00851
G1 X145.164 Y138.889 E63.07293
G1 X144.422 Y138.935 E63.13861
G1 X143.687 Y138.855 E63.20392
G1 X142.976 Y138.651 E63.26927
G1 X142.319 Y138.334 E63.33372
G1 X141.713 Y137.901 E63.39952
G1 X141.194 Y137.377 E63.46468
G1 X140.72 Y136.697 E63.53791
G1 X123.937 Y116.086 E65.88616
G1 X133.425 Y80.675 E69.12497
G1 X16.509 Y13.474 E81.03886
G1 X14.851 Y12.521 E81.20781
G1 X16.698 Y13.015 E81.29296
G1 X16.699 Y13.016 E81.29308
G1 X17.396 Y13.203 E81.35684
G0 F1350 X17.446 Y13.289
G0 X133.461 Y80.661
G0 X126.236 Y115.752
G0 X126.322 Y115.702
G1 F900 X126.563 Y115.766 E81.37887
G1 X134.413 Y117.869 E82.09685
G1 X152.799 Y49.247 E88.37325
G1 X36.258 Y18.02 E99.03253
G1 X22.155 Y14.04 E100.32715
G1 X21.647 Y15.277 E100.4453
G1 X136.308 Y78.433 E112.01029
G1 X126.386 Y115.461 E115.39702
G1 X126.322 Y115.702 E115.41126
G0 F1350 X126.236 Y115.752
G0 X143.453 Y132.196
G0 X143.492 Y132.287
G1 F900 X143.113 Y132.496 E115.4495
G1 X142.778 Y132.764 E115.4874
G1 X142.49 Y133.084 E115.52544
G1 X142.261 Y133.452 E115.56373
G1 X142.099 Y133.849 E115.60161
G1 X142.005 Y134.268 E115.63955
G1 X141.984 Y134.698 E115.67759
G1 X142.035 Y135.127 E115.71575
G1 X142.159 Y135.539 E115.75377
G1 X142.349 Y135.925 E115.79177
G1 X142.603 Y136.272 E115.82977
G1 X142.912 Y136.573 E115.86788
G1 X143.266 Y136.816 E115.90581
G1 X143.644 Y136.99 E115.94257
G1 X143.865 Y137.06 E115.96306
G1 X144.09 Y137.109 E115.9834
G1 X144.502 Y137.148 E116.01996
G1 X144.933 Y137.114 E116.05816
G1 X145.35 Y137.008 E116.09617
G1 X145.742 Y136.834 E116.13406
G1 X146.102 Y136.596 E116.17219
G1 X146.414 Y136.299 E116.21024
G1 X146.673 Y135.955 E116.24829
G1 X146.869 Y135.572 E116.2863
G1 X146.999 Y135.161 E116.32438
G1 X147.056 Y134.734 E116.36244
G1 X147.041 Y134.305 E116.40036
G1 X146.953 Y133.882 E116.43853
G1 X146.796 Y133.483 E116.47642
G1 X146.573 Y133.113 E116.51458
G1 X146.29 Y132.788 E116.55266
G1 X145.957 Y132.515 E116.5907
G1 X145.582 Y132.303 E116.62876
G1 X145.178 Y132.157 E116.66671
G1 X144.755 Y132.081 E116.70468
G1 X144.323 Y132.078 E116.74284
G1 X143.9 Y132.149 E116.78074
G1 X143.492 Y132.287 E116.81879
G0 F1350 X143.453 Y132.196
G0 X142.752 Y132.734
G0 X142.458 Y133.061
G0 X142.062 Y133.833
G0 X141.945 Y134.702
G0 X142.044 Y135.184
G0 X142.294 Y136.018
G0 X142.778 Y135.665
;TYPE:WALL-OUTER
G1 F900 X142.982 Y135.943 E116.84925
G1 X143.23 Y136.185 E116.87987
G1 X143.514 Y136.38 E116.9103
G1 X143.824 Y136.523 E116.94046
G1 X143.993 Y136.576 E116.95611
G1 X144.167 Y136.614 E116.97184
G1 X144.506 Y136.646 E117.00193
G1 X144.851 Y136.619 E117.0325
G1 X145.186 Y136.534 E117.06303
G1 X145.501 Y136.394 E117.09349
G1 X145.789 Y136.203 E117.12402
G1 X146.04 Y135.965 E117.15458
G1 X146.248 Y135.689 E117.18511
G1 X146.405 Y135.382 E117.21558
G1 X146.509 Y135.052 E117.24614
G1 X146.555 Y134.709 E117.27672
G1 X146.543 Y134.365 E117.30713
G1 X146.472 Y134.026 E117.33773
G1 X146.346 Y133.705 E117.36819
G1 X146.167 Y133.409 E117.39875
G1 X145.94 Y133.148 E117.42931
G1 X145.673 Y132.929 E117.45982
G1 X145.373 Y132.759 E117.49029
G1 X145.048 Y132.642 E117.5208
G1 X144.708 Y132.581 E117.55132
G1 X144.362 Y132.578 E117.58189
G1 X144.022 Y132.635 E117.61235
G1 X143.695 Y132.746 E117.64286
G1 X143.392 Y132.913 E117.67342
G1 X143.122 Y133.129 E117.70397
G1 X142.891 Y133.386 E117.7345
G1 X142.708 Y133.68 E117.76509
G1 X142.578 Y133.999 E117.79553
G1 X142.502 Y134.336 E117.82605
G1 X142.485 Y134.681 E117.85656
G1 X142.526 Y135.024 E117.88708
G1 X142.626 Y135.355 E117.91763
G1 X142.778 Y135.665 E117.94813
G0 F1350 X142.926 Y135.867
G0 X142.442 Y136.221
G0 X133.905 Y117.835
G0 X134.059 Y117.257
G1 F900 X152.187 Y49.601 E124.1362
G1 X36.129 Y18.503 E134.75131
G1 X22.678 Y14.706 E135.98611
G1 X22.448 Y14.642 E136.0072
G1 X22.279 Y15.054 E136.04654
G1 X22.488 Y15.169 E136.06646
G1 X136.892 Y78.184 E147.60556
G1 X126.998 Y115.107 E150.98269
G1 X126.934 Y115.348 E151.00472
G1 X127.175 Y115.412 E151.01896
G1 X134.059 Y117.257 E151.64861
G0 F1350 X134.123 Y117.016
G0 X134.702 Y117.172
G0 X134.433 Y117.903
G0 X126.288 Y115.722
G0 X133.461 Y80.661
G0 X16.887 Y13.169
G0 X17.042 Y12.591
G1 F900 X17.964 Y9.152 E151.96317
G1 X18.028 Y8.911 E151.9852
G1 X18.269 Y8.975 E151.99944
G1 X156.777 Y46.09 E164.66795
G1 X157.018 Y46.154 E164.68998
G1 X156.954 Y46.395 E164.70422
G1 X137.184 Y120.171 E171.4521
G1 X145.689 Y129.915 E172.59475
G1 X146.545 Y130.225 E172.67519
G1 X147.26 Y130.632 E172.74787
G1 X147.898 Y131.157 E172.82087
G1 X148.433 Y131.778 E172.89328
G1 X148.858 Y132.486 E172.96624
G1 X149.155 Y133.252 E173.03882
G1 X149.319 Y134.06 E173.11166
G1 X149.342 Y134.887 E173.18475
G1 X149.226 Y135.696 E173.25696
G1 X148.971 Y136.486 E173.3303
G1 X148.589 Y137.212 E173.40277
G1 X148.091 Y137.86 E173.47497
G1 X147.48 Y138.425 E173.5485
G1 X146.79 Y138.872 E173.62113
G1 X146.032 Y139.195 E173.69392
G1 X145.236 Y139.385 E173.76622
G1 X144.411 Y139.437 E173.83925
G1 X143.588 Y139.347 E173.9124
G1 X142.802 Y139.122 E173.98463
G1 X142.06 Y138.764 E174.05741
G1 X141.389 Y138.285 E174.13025
G1 X140.809 Y137.698 E174.20315
G1 X140.321 Y136.998 E174.27854
G1 X123.388 Y116.204 E176.64769
G1 X132.843 Y80.917 E179.87517
G1 X12.945 Y12.002 E192.09293
G1 X11.287 Y11.049 E192.26188
G1 X13.134 Y11.544 E192.34706
G1 X17.042 Y12.591 E192.70449
G0 F1350 X17.106 Y12.35
G0 X17.685 Y12.505
G0 X17.786 Y13.643
;TYPE:SKIN
G1 F900 X18.729 Y10.123 E193.02644
G1 X155.806 Y46.853 E205.56403
G1 X136.091 Y120.424 E212.29315
G1 X145.111 Y130.758 E213.505
G1 X146.128 Y131.128 E213.60061
G1 X146.699 Y131.452 E213.65861
G1 X147.203 Y131.866 E213.71623
G1 X147.628 Y132.359 E213.77374
G1 X147.966 Y132.923 E213.83183
G1 X148.203 Y133.532 E213.88956
G1 X148.332 Y134.169 E213.94698
G1 X148.349 Y134.831 E214.00549
G1 X148.257 Y135.472 E214.0627
G1 X148.053 Y136.104 E214.12137
G1 X147.753 Y136.674 E214.17828
G1 X147.358 Y137.19 E214.23569
G1 X146.871 Y137.64 E214.29427
G1 X146.324 Y137.994 E214.35183
G1 X145.715 Y138.253 E214.4103
G1 X145.099 Y138.401 E214.46627
G1 X144.433 Y138.443 E214.52523
G1 X143.777 Y138.371 E214.58353
G1 X143.15 Y138.191 E214.64116
G1 X142.568 Y137.911 E214.69822
G1 X142.037 Y137.531 E214.75591
G1 X141.57 Y137.059 E214.81457
G1 X141.112 Y136.401 E214.8854
G1 X124.475 Y115.97 E217.21317
G1 X133.996 Y80.438 E220.46307
G1 X17.786 Y13.643 E232.305
G0 F1350 X21.867 Y13.45
G1 F900 X21.028 Y15.495 E232.50029
G1 X135.735 Y78.677 E244.06995
G1 X125.722 Y116.049 E247.48812
G1 X134.76 Y118.469 E248.31473
G1 X153.399 Y48.9 E254.67773
G1 X36.474 Y17.571 E265.37211
G1 X21.867 Y13.45 E266.71297
G0 F1350 X21.61 Y15.289
G0 X133.461 Y80.661
G0 X124.374 Y114.582
G0 X142.441 Y132.407
G1 F900 X142.096 Y132.788 E266.75838
G1 X141.823 Y133.229 E266.8042
G1 X141.63 Y133.702 E266.84933
G1 X141.517 Y134.201 E266.89454
G1 X141.492 Y134.715 E266.94
G1 X141.553 Y135.227 E266.98555
G1 X141.702 Y135.719 E267.03097
G1 X141.928 Y136.18 E267.07633
G1 X142.232 Y136.595 E267.12178
G1 X142.6 Y136.953 E267.16714
G1 X143.023 Y137.243 E267.21245
G1 X143.467 Y137.448 E267.25565
G1 X143.739 Y137.534 E267.28085
G1 X144.014 Y137.594 E267.30572
G1 X144.498 Y137.64 E267.34867
G1 X145.013 Y137.6 E267.39431
G1 X145.511 Y137.473 E267.43972
G1 X145.978 Y137.265 E267.48488
G1 X146.408 Y136.981 E267.53041
G1 X146.781 Y136.626 E267.5759
G1 X147.09 Y136.216 E267.62126
G1 X147.324 Y135.758 E267.6667
G1 X147.479 Y135.269 E267.71202
G1 X147.548 Y134.758 E267.75757
G1 X147.529 Y134.246 E267.80284
G1 X147.424 Y133.741 E267.84841
G1 X147.237 Y133.266 E267.89351
G1 X146.971 Y132.823 E267.93916
G1 X146.633 Y132.435 E267.98462
G1 X146.235 Y132.109 E268.03007
G1 X145.787 Y131.856 E268.07553
G1 X145.305 Y131.682 E268.1208
G1 X144.8 Y131.591 E268.16613
G1 X144.284 Y131.588 E268.21172
G1 X143.78 Y131.672 E268.25686
G1 X143.294 Y131.836 E268.30218
G1 X142.84 Y132.087 E268.34801
G1 X142.441 Y132.407 E268.3932
G0 F1350 X136.594 Y120.308
G0 X155.46 Y47.272
G1 F900 X155.076 Y46.888 E268.44117
G0 F1350 X155.311 Y47.83
G1 F900 X154.11 Y46.63 E268.59117
G1 X154.022 Y46.542
G0 F1350 X153.144 Y46.371
G1 F900 X155.161 Y48.388 E268.84317
G0 F1350 X155.011 Y48.945
G1 F900 X152.178 Y46.112 E269.19713
G1 X152.09 Y46.024
G0 F1350 X151.212 Y45.853
G1 F900 X154.862 Y49.503 E269.65317
G0 F1350 X154.712 Y50.061
G1 F900 X153.614 Y48.962 E269.79042
G0 F1350 X153.288 Y48.636
G1 F900 X150.246 Y45.594 E270.17049
G0 F1350 X149.28 Y45.336
G1 F900 X152.322 Y48.377 E270.5505
G1 X152.41 Y48.465
G0 F1350 X153.465 Y49.52
G1 F900 X154.563 Y50.618 E270.68769
G0 F1350 X154.414 Y51.176
G1 F900 X153.315 Y50.078 E270.82494
G0 F1350 X153.166 Y50.635
G1 F900 X154.264 Y51.734 E270.96219
G0 F1350 X154.115 Y52.291
G1 F900 X153.017 Y51.193 E271.09937
G0 F1350 X152.867 Y51.751
G1 F900 X153.966 Y52.849 E271.23662
G0 F1350 X153.816 Y53.407
G1 F900 X152.718 Y52.308 E271.37387
G0 F1350 X152.568 Y52.866
G1 F900 X153.667 Y53.964 E271.51112
G0 F1350 X153.517 Y54.522
G1 F900 X152.419 Y53.424 E271.64831
G0 F1350 X152.269 Y53.981
G1 F900 X153.367 Y55.08 E271.78555
G0 F1350 X153.218 Y55.637
G1 F900 X152.12 Y54.539 E271.92274
G0 F1350 X151.971 Y55.097
G1 F900 X153.069 Y56.195 E272.05993
G0 F1350 X152.919 Y56.753
G1 F900 X151.821 Y55.654 E272.19718
G0 F1350 X151.672 Y56.212
G1 F900 X152.77 Y57.311 E272.33442
G0 F1350 X152.621 Y57.868
G1 F900 X151.523 Y56.77 E272.47161
G0 F1350 X151.373 Y57.327
G1 F900 X152.471 Y58.426 E272.60886
G0 F1350 X152.322 Y58.984
G1 F900 X151.223 Y57.885 E272.74617
G0 F1350 X151.074 Y58.443
G1 F900 X152.172 Y59.541 E272.88336
G0 F1350 X152.023 Y60.099
G1 F900 X150.925 Y59.001 E273.02054
G0 F1350 X150.775 Y59.558
G1 F900 X151.873 Y60.657 E273.15779
G0 F1350 X151.724 Y61.214
G1 F900 X150.626 Y60.116 E273.29498
G0 F1350 X150.477 Y60.674
G1 F900 X151.574 Y61.772 E273.4321
G0 F1350 X151.425 Y62.33
G1 F900 X150.327 Y61.231 E273.56935
G0 F1350 X150.178 Y61.789
G1 F900 X151.276 Y62.887 E273.70654
G0 F1350 X151.126 Y63.445
G1 F900 X150.028 Y62.347 E273.84372
G0 F1350 X149.879 Y62.904
G1 F900 X150.977 Y64.003 E273.98097
G0 F1350 X150.827 Y64.56
G1 F900 X149.729 Y63.462 E274.11816
G0 F1350 X149.58 Y64.02
G1 F900 X150.678 Y65.118 E274.25534
G0 F1350 X150.528 Y65.676
G1 F900 X149.43 Y64.577 E274.39259
G0 F1350 X149.281 Y65.135
G1 F900 X150.379 Y66.233 E274.52978
G0 F1350 X150.229 Y66.791
G1 F900 X149.132 Y65.693 E274.6669
G0 F1350 X148.983 Y66.251
G1 F900 X150.08 Y67.349 E274.80403
G0 F1350 X149.93 Y67.906
G1 F900 X148.833 Y66.808 E274.94115
G0 F1350 X148.684 Y67.366
G1 F900 X149.781 Y68.464 E275.07827
G0 F1350 X149.632 Y69.022
G1 F900 X148.534 Y67.924 E275.21546
G0 F1350 X148.384 Y68.481
G1 F900 X149.482 Y69.579 E275.35265
G0 F1350 X149.333 Y70.137
G1 F900 X148.235 Y69.039 E275.48983
G0 F1350 X148.086 Y69.597
G1 F900 X149.183 Y70.695 E275.62695
G0 F1350 X149.034 Y71.252
