;Generated by Cura LulzBot Edition GCodeWriter Version: 3.6.31
;FLAVOR:Marlin
;TIME:4179
;Filament used: 5.50321m
;Layer height: 0.25
;Generated with Cura_SteamEngine 3.6.31-win10
M82 ;absolute extrusion mode
;This G-Code has been generated specifically for the LulzBot Sidekick with a Universal Tool Head
G90 			            ; absolute coordinate
M82     	            	; set extruder to absolute mode
G92 E0     					; set extruder position to 0
M117 Heating...         	; progress indicator message on LCD
M109 R140 ; soften filament before homing Z
G28 ; Home all axis
G1 E-15 F100 ; retract filament
M140 S60.0     	; start bed heating up
M104 S140     	        ; start extruder heating to probe temp
M190 S60.0     	; wait for bed to reach printing temp
G29     					; start auto leveling
G0 X0 Y0 F5000
M109 R210     	; wait for extruder to reach initial printing temp
M117 SideKick Printing...   ; progress indicator message on LCD
G1 Z2 E0 F75 ; prime tiny bit of filament into the nozzle
M221 S100 T0
G92 E0
G1 F600 E-1.2
;LAYER_COUNT:68
;LAYER:0
M107
G0 F1350 X119.424 Y49.289 Z0.425
;TYPE:SKIRT
G1 F600 E0
G1 F900 X121.246 Y47.303 E0.23811
G1 X124.778 Y43.116 E0.72206
G1 X128.067 Y38.733 E1.20618
G1 X131.091 Y34.192 E1.68818
G1 X133.887 Y29.429 E2.17613
G1 X135.42 Y26.531 E2.46577
G1 X135.693 Y26.1 E2.51084
G1 X135.993 Y25.754 E2.5513
G1 X143.626 Y18.106 E3.50592
G1 X144.013 Y17.775 E3.55091
G1 X144.447 Y17.508 E3.59593
G1 X144.917 Y17.312 E3.64092
G1 X145.413 Y17.193 E3.68598
G1 X145.92 Y17.152 E3.73092
G1 X146.428 Y17.191 E3.77593
G1 X146.924 Y17.309 E3.82098
G1 X147.395 Y17.503 E3.86598
G1 X147.83 Y17.768 E3.91098
G1 X148.218 Y18.098 E3.95598
G1 X148.55 Y18.485 E4.00103
G1 X148.818 Y18.919 E4.04609
G1 X149.014 Y19.389 E4.09108
G1 X149.163 Y20.116 E4.15665
G1 X151.435 Y45.873 E6.44104
G1 X151.44 Y46.383 E6.4861
G1 X151.365 Y46.887 E6.53112
G1 X151.213 Y47.373 E6.5761
G1 X150.986 Y47.829 E6.62111
G1 X150.691 Y48.244 E6.66609
G1 X150.497 Y48.457 E6.69154
G1 X126.03 Y72.935 E9.74918
G1 X122.257 Y76.928 E10.23453
G1 X118.735 Y81.104 E10.71716
G1 X115.446 Y85.487 E11.20129
G1 X112.422 Y90.028 E11.68329
G1 X109.635 Y94.775 E12.16961
G1 X107.149 Y99.617 E12.65047
G1 X105.013 Y104.41 E13.11407
G1 X104.769 Y104.858 E13.15914
G1 X104.342 Y105.385 E13.21906
G1 X98.955 Y110.773 E13.89219
G1 X98.568 Y111.104 E13.93718
G1 X97.964 Y111.451 E13.99872
G1 X94.426 Y113.005 E14.34011
G1 X89.496 Y115.449 E14.82625
G1 X84.754 Y118.145 E15.30816
G1 X80.159 Y121.112 E15.79139
G1 X75.735 Y124.339 E16.27517
G1 X71.48 Y127.825 E16.76114
G1 X69.463 Y129.627 E17.00009
G1 X66.508 Y132.459 E17.3617
G1 X42.008 Y156.947 E20.42202
G1 X41.62 Y157.277 E20.46702
G1 X41.186 Y157.544 E20.51204
G1 X40.715 Y157.739 E20.55708
G1 X40.22 Y157.858 E20.60205
G1 X39.712 Y157.898 E20.64707
G1 X39.194 Y157.857 E20.69298
G1 X15.044 Y153.977 E22.85393
G1 X14.549 Y153.857 E22.89893
G1 X14.079 Y153.661 E22.94392
G1 X13.645 Y153.394 E22.98893
G1 X13.258 Y153.062 E23.03398
G1 X12.928 Y152.674 E23.07898
G1 X12.662 Y152.24 E23.12395
G1 X12.468 Y151.769 E23.16896
G1 X12.349 Y151.273 E23.21402
G1 X12.31 Y150.765 E23.25903
G1 X12.35 Y150.257 E23.30405
G1 X12.47 Y149.762 E23.34905
G1 X12.665 Y149.291 E23.39409
G1 X12.931 Y148.857 E23.43906
G1 X13.263 Y148.469 E23.48417
G1 X21.029 Y140.71 E24.45403
G1 X21.416 Y140.379 E24.49902
G1 X21.824 Y140.127 E24.54139
G1 X23.553 Y139.226 E24.71364
G1 X28.34 Y136.503 E25.20019
G1 X32.942 Y133.529 E25.68428
G1 X37.361 Y130.306 E26.16749
G1 X41.609 Y126.823 E26.65281
G1 X43.629 Y125.017 E26.8922
G1 X46.591 Y122.179 E27.25461
G1 X119.424 Y49.289 E36.35807
G1 F600 E35.15807
;MESH:
G0 F1350 X121.277 Y51.148
G0 X122.292 Y52.161
G0 X91.275 Y101.934
G0 X91.275 Y102.034
;TYPE:WALL-INNER
G1 F600 E36.35807
G1 F900 X39.442 Y153.866 E42.83411
G1 X17.592 Y150.344 E44.78942
G1 X17.591 Y150.343 E44.78954
G1 X17.11 Y150.267 E44.83257
G1 X17.455 Y149.922 E44.85646
G1 X23.556 Y143.821 E45.61873
G1 X29.447 Y144.979 E46.14915
G1 X140.237 Y34.189 E59.99146
G1 X139.111 Y28.266 E60.52411
G1 X144.954 Y22.423 E61.25414
G1 X144.955 Y22.422 E61.25427
G1 X145.332 Y22.045 E61.30137
G1 X145.378 Y22.577 E61.32715
G1 X147.431 Y45.876 E63.39353
G1 X95.602 Y97.707 E69.86926
G1 X100.989 Y103.095 E70.54239
G1 X96.663 Y107.421 E71.08289
G1 X91.275 Y102.034 E71.75601
G0 F1350 X91.275 Y102.741
;TYPE:WALL-OUTER
G1 F900 X39.615 Y154.401 E78.21051
G1 X16.546 Y150.682 E80.2749
G1 X16.545 Y150.681 E80.27503
G1 X16.064 Y150.605 E80.31805
G1 X16.409 Y150.26 E80.34195
G1 X23.39 Y143.279 E81.21417
G1 X29.282 Y144.437 E81.74467
G1 X139.696 Y34.022 E95.54006
G1 X138.571 Y28.098 E96.07278
G1 X145.358 Y21.311 E96.92076
G1 X145.359 Y21.31 E96.92089
G1 X145.736 Y20.933 E96.96799
G1 X145.782 Y21.465 E96.99377
G1 X147.95 Y46.065 E99.17554
G1 X96.309 Y97.707 E105.62772
G1 X101.697 Y103.095 E106.30091
G1 X96.663 Y108.129 E106.92987
G1 X91.275 Y102.741 E107.60305
G0 F1350 X91.099 Y102.917
G0 X90.677 Y102.492
G0 X91.275 Y101.341
;TYPE:SKIN
G1 F900 X39.272 Y153.342 E114.10028
G1 X18.135 Y149.936 E115.99176
G1 X23.719 Y144.352 E116.68944
G1 X29.609 Y145.51 E117.21976
G1 X140.766 Y34.352 E131.10799
G1 X139.642 Y28.429 E131.64061
G1 X144.936 Y23.135 E132.30205
G1 X146.923 Y45.69 E134.30244
G1 X94.909 Y97.707 E140.80135
G1 X100.295 Y103.095 E141.47442
G1 X96.663 Y106.727 E141.9282
G1 X91.275 Y101.341 E142.60127
G0 F1350 X29.458 Y145.017
G0 X18.787 Y149.601
G1 F900 X19.038 Y149.852 E142.63263
G0 F1350 X19.14 Y149.248
G1 F900 X19.881 Y149.988 E142.72515
G0 F1350 X20.723 Y150.124
G1 F900 X19.494 Y148.894 E142.87876
G0 F1350 X19.847 Y148.541
G1 F900 X21.566 Y150.26 E143.09354
G0 F1350 X22.409 Y150.395
G1 F900 X20.201 Y148.187 E143.36941
G0 F1350 X20.554 Y147.834
G1 F900 X23.252 Y150.531 E143.70644
G0 F1350 X24.095 Y150.667
G1 F900 X20.908 Y147.48 E144.10463
G0 F1350 X21.261 Y147.127
G1 F900 X24.938 Y150.803 E144.56398
G0 F1350 X25.781 Y150.939
G1 F900 X21.615 Y146.773 E145.08449
G0 F1350 X21.969 Y146.419
G1 F900 X26.624 Y151.075 E145.66615
G0 F1350 X27.467 Y151.211
G1 F900 X22.322 Y146.066 E146.30898
G0 F1350 X22.676 Y145.712
G1 F900 X28.31 Y151.347 E147.01296
G0 F1350 X29.153 Y151.482
G1 F900 X23.029 Y145.359 E147.77804
G0 F1350 X23.383 Y145.005
G1 F900 X29.996 Y151.618 E148.60428
G0 F1350 X30.839 Y151.754
G1 F900 X23.736 Y144.652 E149.49168
G0 F1350 X24.531 Y144.739
G1 F900 X31.682 Y151.89 E150.38514
G0 F1350 X32.525 Y152.026
G1 F900 X25.412 Y144.913 E151.27385
G0 F1350 X26.292 Y145.086
G1 F900 X33.368 Y152.162 E152.15794
G0 F1350 X34.211 Y152.298
G1 F900 X27.171 Y145.258 E153.03753
G0 F1350 X28.052 Y145.432
G1 F900 X35.054 Y152.433 E153.91231
G0 F1350 X35.896 Y152.569
G1 F900 X28.932 Y145.605 E154.78241
G0 F1350 X29.734 Y145.7
G1 F900 X36.739 Y152.705 E155.65763
G0 F1350 X37.583 Y152.841
G1 F900 X30.088 Y145.346 E156.59407
G0 F1350 X30.441 Y144.992
G1 F900 X38.426 Y152.977 E157.59173
G0 F1350 X39.225 Y153.069
G1 F900 X30.795 Y144.639 E158.64499
G0 F1350 X31.148 Y144.285
G1 F900 X39.578 Y152.715 E159.69825
G0 F1350 X39.932 Y152.362
G1 F900 X31.502 Y143.932 E160.75151
G0 F1350 X31.855 Y143.578
G1 F900 X40.285 Y152.008 E161.80477
G0 F1350 X40.639 Y151.655
G1 F900 X32.209 Y143.225 E162.85803
G0 F1350 X32.562 Y142.871
G1 F900 X40.993 Y151.301 E163.91135
G0 F1350 X41.346 Y150.948
G1 F900 X32.916 Y142.518 E164.96461
G0 F1350 X33.27 Y142.164
G1 F900 X41.7 Y150.594 E166.01787
G0 F1350 X42.053 Y150.241
G1 F900 X33.623 Y141.81 E167.07119
G0 F1350 X33.977 Y141.457
G1 F900 X42.407 Y149.887 E168.12445
G0 F1350 X42.76 Y149.533
G1 F900 X34.33 Y141.103 E169.17771
G0 F1350 X34.684 Y140.75
G1 F900 X43.114 Y149.18 E170.23097
G0 F1350 X43.467 Y148.826
G1 F900 X35.037 Y140.396 E171.28423
G0 F1350 X35.391 Y140.043
G1 F900 X43.821 Y148.473 E172.33749
G0 F1350 X44.175 Y148.119
G1 F900 X35.744 Y139.689 E173.39081
G0 F1350 X36.098 Y139.336
G1 F900 X44.528 Y147.766 E174.44407
G0 F1350 X44.882 Y147.412
G1 F900 X36.452 Y138.982 E175.49733
G0 F1350 X36.805 Y138.628
G1 F900 X45.235 Y147.059 E176.55065
G0 F1350 X45.589 Y146.705
G1 F900 X37.159 Y138.275 E177.60391
G0 F1350 X37.512 Y137.921
G1 F900 X45.942 Y146.352 E178.65724
G0 F1350 X46.296 Y145.998
G1 F900 X37.866 Y137.568 E179.7105
G0 F1350 X38.219 Y137.214
G1 F900 X46.649 Y145.644 E180.76376
G0 F1350 X47.003 Y145.291
G1 F900 X38.573 Y136.861 E181.81702
G0 F1350 X38.926 Y136.507
G1 F900 X47.357 Y144.937 E182.87034
G0 F1350 X47.71 Y144.584
G1 F900 X39.28 Y136.154 E183.9236
G0 F1350 X39.634 Y135.8
G1 F900 X48.064 Y144.23 E184.97686
G0 F1350 X48.417 Y143.877
G1 F900 X39.987 Y135.447 E186.03012
G0 F1350 X40.341 Y135.093
G1 F900 X48.771 Y143.523 E187.08338
G0 F1350 X49.124 Y143.17
G1 F900 X40.694 Y134.739 E188.1367
G0 F1350 X41.048 Y134.386
G1 F900 X49.478 Y142.816 E189.18996
G0 F1350 X49.831 Y142.462
G1 F900 X41.401 Y134.032 E190.24322
G0 F1350 X41.755 Y133.679
G1 F900 X50.185 Y142.109 E191.29648
G0 F1350 X50.539 Y141.755
G1 F900 X42.108 Y133.325 E192.3498
G0 F1350 X42.462 Y132.972
G1 F900 X50.892 Y141.402 E193.40306
G0 F1350 X51.246 Y141.048
G1 F900 X42.816 Y132.618 E194.45632
G0 F1350 X43.169 Y132.265
G1 F900 X51.599 Y140.695 E195.50958
G0 F1350 X51.953 Y140.341
G1 F900 X43.523 Y131.911 E196.56284
G0 F1350 X43.876 Y131.557
G1 F900 X52.306 Y139.988 E197.61616
G0 F1350 X52.66 Y139.634
G1 F900 X44.23 Y131.204 E198.66942
G0 F1350 X44.583 Y130.85
G1 F900 X53.013 Y139.28 E199.72268
G0 F1350 X53.367 Y138.927
G1 F900 X44.937 Y130.497 E200.77594
G0 F1350 X45.29 Y130.143
G1 F900 X53.721 Y138.573 E201.82927
G0 F1350 X54.074 Y138.22
G1 F900 X45.644 Y129.79 E202.88253
G0 F1350 X45.998 Y129.436
G1 F900 X54.428 Y137.866 E203.93579
G0 F1350 X54.781 Y137.513
G1 F900 X46.351 Y129.083 E204.98905
G0 F1350 X46.705 Y128.729
G1 F900 X55.135 Y137.159 E206.0423
G0 F1350 X55.488 Y136.806
G1 F900 X47.058 Y128.375 E207.09563
G0 F1350 X47.412 Y128.022
G1 F900 X55.842 Y136.452 E208.14889
G0 F1350 X56.195 Y136.098
G1 F900 X47.765 Y127.668 E209.20215
G0 F1350 X48.119 Y127.315
G1 F900 X56.549 Y135.745 E210.25541
G0 F1350 X56.903 Y135.391
G1 F900 X48.472 Y126.961 E211.30873
G0 F1350 X48.826 Y126.608
G1 F900 X57.256 Y135.038 E212.36199
G0 F1350 X57.61 Y134.684
G1 F900 X49.179 Y126.254 E213.41531
G0 F1350 X49.533 Y125.901
G1 F900 X57.963 Y134.331 E214.46857
G0 F1350 X58.317 Y133.977
G1 F900 X49.887 Y125.547 E215.52183
G0 F1350 X50.24 Y125.193
G1 F900 X58.67 Y133.624 E216.57515
G0 F1350 X59.024 Y133.27
G1 F900 X50.594 Y124.84 E217.62841
G0 F1350 X50.947 Y124.486
G1 F900 X59.377 Y132.916 E218.68167
G0 F1350 X59.731 Y132.563
G1 F900 X51.301 Y124.133 E219.73493
G0 F1350 X51.654 Y123.779
G1 F900 X60.084 Y132.209 E220.78819
G0 F1350 X60.438 Y131.856
G1 F900 X52.008 Y123.426 E221.84145
G0 F1350 X52.361 Y123.072
G1 F900 X60.792 Y131.502 E222.89477
G0 F1350 X61.145 Y131.149
G1 F900 X52.715 Y122.719 E223.94803
G0 F1350 X53.069 Y122.365
G1 F900 X61.499 Y130.795 E225.00129
G0 F1350 X61.852 Y130.442
G1 F900 X53.422 Y122.011 E226.05462
G0 F1350 X53.776 Y121.658
G1 F900 X62.206 Y130.088 E227.10788
G0 F1350 X62.559 Y129.735
G1 F900 X54.129 Y121.304 E228.1612
G0 F1350 X54.483 Y120.951
G1 F900 X62.913 Y129.381 E229.21446
G0 F1350 X63.266 Y129.027
G1 F900 X54.836 Y120.597 E230.26772
G0 F1350 X55.19 Y120.244
G1 F900 X63.62 Y128.674 E231.32098
G0 F1350 X63.974 Y128.32
G1 F900 X55.543 Y119.89 E232.3743
G0 F1350 X55.897 Y119.537
G1 F900 X64.327 Y127.967 E233.42756
G0 F1350 X64.681 Y127.613
G1 F900 X56.251 Y119.183 E234.48082
G0 F1350 X56.604 Y118.83
G1 F900 X65.034 Y127.26 E235.53408
G0 F1350 X65.388 Y126.907
G1 F900 X56.958 Y118.476 E236.5874
G0 F1350 X57.311 Y118.122
G1 F900 X65.742 Y126.553 E237.64079
G0 F1350 X66.096 Y126.2
G1 F900 X57.665 Y117.769 E238.69417
G0 F1350 X58.018 Y117.415
G1 F900 X66.449 Y125.846 E239.74756
G0 F1350 X66.803 Y125.493
G1 F900 X58.372 Y117.062 E240.80094
G0 F1350 X58.725 Y116.708
G1 F900 X67.156 Y125.139 E241.85433
G0 F1350 X67.51 Y124.785
G1 F900 X59.079 Y116.355 E242.90765
G0 F1350 X59.433 Y116.001
G1 F900 X67.863 Y124.432 E243.96097
G0 F1350 X68.217 Y124.078
G1 F900 X59.786 Y115.648 E245.01429
G0 F1350 X60.14 Y115.294
G1 F900 X68.57 Y123.725 E246.06762
G0 F1350 X68.924 Y123.371
G1 F900 X60.493 Y114.94 E247.121
G0 F1350 X60.847 Y114.587
G1 F900 X69.278 Y123.018 E248.17439
G0 F1350 X69.631 Y122.664
G1 F900 X61.2 Y114.233 E249.22777
G0 F1350 X61.554 Y113.88
G1 F900 X69.985 Y122.311 E250.28116
G0 F1350 X70.338 Y121.957
G1 F900 X61.907 Y113.526 E251.33454
G0 F1350 X62.261 Y113.173
G1 F900 X70.692 Y121.603 E252.38786
G0 F1350 X71.045 Y121.25
G1 F900 X62.615 Y112.819 E253.44118
G0 F1350 X62.968 Y112.466
G1 F900 X71.399 Y120.896 E254.49451
G0 F1350 X71.752 Y120.543
G1 F900 X63.322 Y112.112 E255.54783
G0 F1350 X63.675 Y111.758
G1 F900 X72.106 Y120.189 E256.60121
G0 F1350 X72.46 Y119.836
G1 F900 X64.029 Y111.405 E257.6546
G0 F1350 X64.382 Y111.051
G1 F900 X72.813 Y119.482 E258.70798
G0 F1350 X73.167 Y119.129
G1 F900 X64.736 Y110.698 E259.76137
G0 F1350 X65.089 Y110.344
G1 F900 X73.52 Y118.775 E260.81475
G0 F1350 X73.874 Y118.422
G1 F900 X65.443 Y109.991 E261.86814
G0 F1350 X65.796 Y109.637
G1 F900 X74.227 Y118.068 E262.92152
G0 F1350 X74.581 Y117.714
G1 F900 X66.15 Y109.284 E263.97484
G0 F1350 X66.504 Y108.93
G1 F900 X74.934 Y117.361 E265.02817
G0 F1350 X75.288 Y117.007
G1 F900 X66.857 Y108.576 E266.08155
G0 F1350 X67.211 Y108.223
G1 F900 X75.642 Y116.654 E267.13494
G0 F1350 X75.995 Y116.3
G1 F900 X67.564 Y107.869 E268.18832
G0 F1350 X67.918 Y107.516
G1 F900 X76.349 Y115.947 E269.24171
G0 F1350 X76.702 Y115.593
G1 F900 X68.271 Y107.162 E270.29509
G0 F1350 X68.625 Y106.809
G1 F900 X77.056 Y115.24 E271.34848
G0 F1350 X77.409 Y114.886
G1 F900 X68.978 Y106.455 E272.40186
G0 F1350 X69.332 Y106.102
G1 F900 X77.763 Y114.532 E273.45518
G0 F1350 X78.116 Y114.179
G1 F900 X69.686 Y105.748 E274.50851
G0 F1350 X70.039 Y105.394
G1 F900 X78.47 Y113.825 E275.56189
G0 F1350 X78.824 Y113.472
G1 F900 X70.393 Y105.041 E276.61528
G0 F1350 X70.746 Y104.687
G1 F900 X79.177 Y113.118 E277.66866
G0 F1350 X79.531 Y112.765
G1 F900 X71.1 Y104.334 E278.72204
G0 F1350 X71.453 Y103.98
G1 F900 X79.884 Y112.411 E279.77543
G0 F1350 X80.238 Y112.058
G1 F900 X71.807 Y103.627 E280.82881
G0 F1350 X72.16 Y103.273
G1 F900 X80.591 Y111.704 E281.8822
G0 F1350 X80.945 Y111.35
G1 F900 X72.514 Y102.92 E282.93552
G0 F1350 X72.868 Y102.566
G1 F900 X81.298 Y110.997 E283.98884
G0 F1350 X81.652 Y110.643
G1 F900 X73.221 Y102.212 E285.04223
G0 F1350 X73.575 Y101.859
G1 F900 X82.006 Y110.29 E286.09561
G0 F1350 X82.359 Y109.936
G1 F900 X73.928 Y101.505 E287.149
G0 F1350 X74.282 Y101.152
G1 F900 X82.713 Y109.583 E288.20238
G0 F1350 X83.066 Y109.229
G1 F900 X74.635 Y100.798 E289.25577
G0 F1350 X74.989 Y100.445
G1 F900 X83.42 Y108.876 E290.30915
G0 F1350 X83.773 Y108.522
G1 F900 X75.342 Y100.091 E291.36254
G0 F1350 X75.696 Y99.738
G1 F900 X84.127 Y108.168 E292.41586
G0 F1350 X84.48 Y107.815
G1 F900 X76.05 Y99.384 E293.46918
G0 F1350 X76.403 Y99.031
G1 F900 X84.834 Y107.461 E294.5225
G0 F1350 X85.187 Y107.108
G1 F900 X76.757 Y98.677 E295.57583
G0 F1350 X77.11 Y98.323
G1 F900 X85.541 Y106.754 E296.62921
G0 F1350 X85.895 Y106.401
G1 F900 X77.464 Y97.97 E297.6826
G0 F1350 X77.817 Y97.616
G1 F900 X86.248 Y106.047 E298.73598
G0 F1350 X86.602 Y105.694
G1 F900 X78.171 Y97.263 E299.78937
G0 F1350 X78.524 Y96.909
G1 F900 X86.955 Y105.34 E300.84275
G0 F1350 X87.309 Y104.986
G1 F900 X78.878 Y96.556 E301.89607
G0 F1350 X79.232 Y96.202
G1 F900 X87.662 Y104.633 E302.9494
G0 F1350 X88.016 Y104.279
G1 F900 X79.585 Y95.849 E304.00272
G0 F1350 X79.939 Y95.495
G1 F900 X88.369 Y103.926 E305.05604
G0 F1350 X88.723 Y103.572
G1 F900 X80.292 Y95.141 E306.10942
